src/xmb/retrosystem/NEC - PC-FX.svg

<svg xmlns="http://www.w3.org/2000/svg" xml:space="preserve" width="256" height="256" viewBox="0 0 341.333 341.333"><g style="stroke:#1a1a1a;stroke-width:2.00000009;stroke-miterlimit:4;stroke-dasharray:none"><path d="M0 0c3.787 15.082 79.529 15.082 83.316 0 79.529-7.541 87.103 18.853 60.593 82.953-11.361 26.394-193.141 26.394-204.502 0C-87.103 18.853-79.529-7.541 0 0" style="fill:#e6e6e6;fill-opacity:1;fill-rule:nonzero;stroke:#1a1a1a;stroke-width:2.00000009;stroke-miterlimit:4;stroke-dasharray:none" transform="matrix(1.33333 0 0 -1.33333 115.123 238.331)"/></g><path d="M0 0c0-13.255-10.745-24-24-24S-48-13.255-48 0s10.745 24 24 24S0 13.255 0 0" style="fill:#888;fill-opacity:1;fill-rule:nonzero;stroke:none" transform="matrix(1.33333 0 0 -1.33333 106.667 176)"/><path d="M0 0a8 8 0 1 0-16 0A8 8 0 0 0 0 0" style="fill:#a0a0a0;fill-opacity:1;fill-rule:nonzero;stroke:none" transform="matrix(1.33333 0 0 -1.33333 272 160)"/><path d="M0 0a8 8 0 1 0-16 0A8 8 0 0 0 0 0" style="fill:#a0a0a0;fill-opacity:1;fill-rule:nonzero;stroke:none" transform="matrix(1.33333 0 0 -1.33333 298.667 149.333)"/><path d="M0 0a8 8 0 1 0-16 0A8 8 0 0 0 0 0" style="fill:#a0a0a0;fill-opacity:1;fill-rule:nonzero;stroke:none" transform="matrix(1.33333 0 0 -1.33333 245.333 170.667)"/><path d="M0 0h6.857c1.42 0 2.572-.895 2.572-2S8.277-4 6.857-4H0c-1.42 0-2.571.895-2.571 2S-1.42 0 0 0" style="fill:#a0a0a0;fill-opacity:1;fill-rule:nonzero;stroke:none" transform="matrix(1.33333 0 0 -1.33333 147.429 202.667)"/><path d="M0 0h6.857c1.42 0 2.572-.895 2.572-2S8.277-4 6.857-4H0c-1.42 0-2.571.895-2.571 2S-1.42 0 0 0" style="fill:#a0a0a0;fill-opacity:1;fill-rule:nonzero;stroke:none" transform="matrix(1.33333 0 0 -1.33333 184.762 202.667)"/><path d="M0 0h8a2 2 0 1 0 0-4H0a2 2 0 1 0 0 4" style="fill:#888;fill-opacity:1;fill-rule:nonzero;stroke:none" transform="matrix(1.33333 0 0 -1.33333 165.333 160)"/><path d="M0 0a2 2 0 1 0-3.999-.001A2 2 0 0 0 0 0" style="fill:#ccc;fill-opacity:1;fill-rule:nonzero;stroke:none" transform="matrix(1.33333 0 0 -1.33333 170.809 162.667)"/><path d="M0 0h8a2 2 0 1 0 0-4H0a2 2 0 1 0 0 4" style="fill:#888;fill-opacity:1;fill-rule:nonzero;stroke:none" transform="matrix(1.33333 0 0 -1.33333 165.333 176)"/><path d="M0 0a2 2 0 1 0-3.999-.001A2 2 0 0 0 0 0" style="fill:#ccc;fill-opacity:1;fill-rule:nonzero;stroke:none" transform="matrix(1.33333 0 0 -1.33333 170.809 178.667)"/><path d="M0 0a8 8 0 1 0-16 0A8 8 0 0 0 0 0" style="fill:#a0a0a0;fill-opacity:1;fill-rule:nonzero;stroke:none" transform="matrix(1.33333 0 0 -1.33333 282.667 186.667)"/><path d="M0 0a8 8 0 1 0-16 0A8 8 0 0 0 0 0" style="fill:#a0a0a0;fill-opacity:1;fill-rule:nonzero;stroke:none" transform="matrix(1.33333 0 0 -1.33333 309.333 176)"/><path d="M0 0a8 8 0 1 0-16 0A8 8 0 0 0 0 0" style="fill:#a0a0a0;fill-opacity:1;fill-rule:nonzero;stroke:none" transform="matrix(1.33333 0 0 -1.33333 256 197.333)"/><path d="M0 0a2.42 2.42 0 0 1-2.978 1.568C-4.472 1.131-6.122.347-7.717-.412c-1.841-.877-3.746-1.784-4.685-1.957-1.157 0-1.628.47-1.656 1.256.202 1.304 1.111 3.206 1.988 5.042.761 1.591 1.549 3.234 1.988 4.726a2.41 2.41 0 0 1-1.557 2.965c-6.535 2.171-11.163 2.171-17.698 0a2.41 2.41 0 0 1-1.557-2.965c.438-1.49 1.224-3.135 1.985-4.726.877-1.836 1.786-3.736 1.96-4.675 0-1.153-.471-1.623-1.254-1.651-1.31.201-3.218 1.108-5.059 1.985-1.595.759-3.245 1.543-4.739 1.98A2.42 2.42 0 0 1-40.979 0c-2.013-6.176-2.013-11.447 0-17.617a2.41 2.41 0 0 1 2.978-1.568c1.491.437 3.137 1.216 4.724 1.975 1.849.874 3.758 1.784 4.703 1.955 1.154 0 1.625-.468 1.653-1.252-.202-1.306-1.111-3.205-1.99-5.045-.759-1.592-1.545-3.236-1.983-4.723a2.41 2.41 0 0 1 1.572-2.97c3.096-1.005 5.966-1.507 8.833-1.507 2.869 0 5.739.502 8.835 1.507a2.41 2.41 0 0 1 1.572 2.97c-.439 1.487-1.225 3.136-1.985 4.723-.88 1.84-1.789 3.739-1.963 4.679 0 1.15.471 1.618 1.262 1.648 1.31-.201 3.22-1.111 5.067-1.985 1.587-.759 3.232-1.538 4.723-1.975 1.267-.362 2.577.322 2.978 1.568C2.015-11.447 2.015-6.176 0 0" style="fill:#a0a0a0;fill-opacity:1;fill-rule:nonzero;stroke:none" transform="matrix(1.33333 0 0 -1.33333 101.985 164.33)"/><path d="M0 0c-2.134.105-14.031.749-27.829 2.535-15.492 2.001-18.564 14.408-19.576 27.515-1.087 14.085 9.056 39.072 9.159 39.322l.01.029c1.491 3.986 4.573 4.636 6.442 4.636.825 0 1.413-.127 1.525-.15 47.731-4.132 52.233-24.292 52.289-24.562C28.937 23.039 2.921 2.235 0 0m27.146 52.986c-4.475 21.592-54.981 22.646-57.114 22.83-2.516.591-7.857.17-10.064-5.706-.501-1.227-10.414-25.717-9.294-40.212 1.025-13.265 4.351-27.12 21.255-29.305C-12.825-1.38.126-1.967.256-1.973l.331-.013.269.195c.13.094 5.637 4.165 11.371 11.008C27.611 25.46 30.955 34.603 27.146 52.986" style="fill:#ccc;fill-opacity:1;fill-rule:nonzero;stroke:none" transform="matrix(1.33333 0 0 -1.33333 89.886 229.352)"/><path d="M0 0c.056.27 4.558 20.429 52.289 24.562.112.023.7.149 1.524.149 1.87 0 4.952-.65 6.442-4.635l.011-.029c.102-.25 10.246-25.237 9.158-39.322-1.011-13.108-4.083-25.514-19.576-27.515-13.797-1.786-25.694-2.43-27.828-2.535C19.099-47.091-6.917-26.287 0 0m9.793-40.108c5.734-6.843 11.24-10.914 11.37-11.008l.27-.195.331.013c.13.006 13.081.593 28.327 2.565 16.904 2.185 20.23 16.041 21.255 29.305 1.119 14.496-8.793 38.986-9.294 40.213-2.208 5.876-7.548 6.297-10.064 5.706-2.134-.184-52.639-1.238-57.114-22.83-3.81-18.383-.466-27.527 14.919-43.769" style="fill:#ccc;fill-opacity:1;fill-rule:nonzero;stroke:none" transform="matrix(1.33333 0 0 -1.33333 222.088 163.585)"/><path d="M0 0a1 1 0 1 0-2 0 1 1 0 0 0 2 0" style="fill:#888;fill-opacity:1;fill-rule:nonzero;stroke:none" transform="matrix(1.33333 0 0 -1.33333 76 150.667)"/><path d="M0 0a1 1 0 1 0-2 0 1 1 0 0 0 2 0" style="fill:#888;fill-opacity:1;fill-rule:nonzero;stroke:none" transform="matrix(1.33333 0 0 -1.33333 76 201.333)"/><path d="M0 0a1 1 0 1 0 0 2 1 1 0 0 0 0-2" style="fill:#888;fill-opacity:1;fill-rule:nonzero;stroke:none" transform="matrix(1.33333 0 0 -1.33333 100 177.333)"/><path d="M0 0a1 1 0 1 0 0 2 1 1 0 0 0 0-2" style="fill:#888;fill-opacity:1;fill-rule:nonzero;stroke:none" transform="matrix(1.33333 0 0 -1.33333 49.333 177.333)"/><path d="M0 0v-4.55q0-.225.2-.374a.64.64 0 0 1 .38-.129h3.366v-.887L1.471-6q-.148 0-1.717.06-1.961.078-1.961 1.442V0Z" style="fill:#888;fill-opacity:1;fill-rule:nonzero;stroke:none" transform="matrix(1.33333 0 0 -1.33333 162.943 120)"/><path d="M0 0h-.246q-.275 0-.743.095-.586.122-.862.392-.356.32-.356.955V5.94H0Z" style="fill:#888;fill-opacity:1;fill-rule:nonzero;stroke:none" transform="matrix(1.33333 0 0 -1.33333 172.138 127.92)"/><path d="M0 0h1.609q.603 0 .827.069.477.147.477.652v.356q0 .52-.552.669-.216.051-.909.052H0Zm2.913 3.387q0 .547-.543.677-.177.044-.914.044H0V2.631h1.612q.625 0 .84.07.461.156.461.686m.312-1.034q.408-.312.52-.46.201-.27.201-.721V.555q0-.833-.669-1.172-.387-.19-1.293-.269A19 19 0 0 0 .52-.955q-1.271 0-1.717.13-1.01.287-1.01 1.32v4.498h4.191q.78 0 1.285-.269.677-.373.677-1.173 0-.511-.16-.79-.159-.277-.561-.408" style="fill:#888;fill-opacity:1;fill-rule:nonzero;stroke:none" transform="matrix(1.33333 0 0 -1.33333 176.072 126.657)"/></svg>

<?xml version="1.0" encoding="UTF-8" standalone="no"?>
<svg
   xmlns:dc="http://purl.org/dc/elements/1.1/"
   xmlns:cc="http://creativecommons.org/ns#"
   xmlns:rdf="http://www.w3.org/1999/02/22-rdf-syntax-ns#"
   xmlns:svg="http://www.w3.org/2000/svg"
   xmlns="http://www.w3.org/2000/svg"
   xmlns:sodipodi="http://sodipodi.sourceforge.net/DTD/sodipodi-0.dtd"
   xmlns:inkscape="http://www.inkscape.org/namespaces/inkscape"
   viewBox="0 0 341.33334 341.33334"
   height="256"
   width="256"
   xml:space="preserve"
   id="svg2"
   version="1.1"
   sodipodi:docname="NEC - PC-FX.svg"
   inkscape:version="0.92.3 (2405546, 2018-03-11)"
   inkscape:export-filename="D:\Documents\Github\Retrosystem-retroarch-theme\png\NEC - PC-FX.png"
   inkscape:export-xdpi="72"
   inkscape:export-ydpi="72"><sodipodi:namedview
     pagecolor="#ffffff"
     bordercolor="#666666"
     borderopacity="1"
     objecttolerance="10"
     gridtolerance="10"
     guidetolerance="10"
     inkscape:pageopacity="0"
     inkscape:pageshadow="2"
     inkscape:window-width="1920"
     inkscape:window-height="1001"
     id="namedview66"
     showgrid="false"
     inkscape:pagecheckerboard="true"
     inkscape:zoom="3.9111842"
     inkscape:cx="147.53098"
     inkscape:cy="144.37476"
     inkscape:window-x="-9"
     inkscape:window-y="-9"
     inkscape:window-maximized="1"
     inkscape:current-layer="svg2" /><metadata
     id="metadata8"><rdf:RDF><cc:Work
         rdf:about=""><dc:format>image/svg+xml</dc:format><dc:type
           rdf:resource="http://purl.org/dc/dcmitype/StillImage" /><dc:title /></cc:Work></rdf:RDF></metadata><defs
     id="defs6"><clipPath
       id="clipPath18"
       clipPathUnits="userSpaceOnUse"><path
         id="path16"
         d="M 0,256 H 256 V 0 H 0 Z" /></clipPath><clipPath
       id="clipPath26"
       clipPathUnits="userSpaceOnUse"><path
         id="path24"
         d="M 4.02386,188 H 251.979 V 68 H 4.02386 Z" /></clipPath></defs><g
     id="g36"
     transform="matrix(1.3333333,0,0,-1.3333333,115.12266,238.33107)"
     style="stroke:#1a1a1a;stroke-width:2.00000009;stroke-miterlimit:4;stroke-dasharray:none"><path
       inkscape:connector-curvature="0"
       d="m 0,0 c 3.787,15.082 79.529,15.082 83.316,0 79.529,-7.541 87.103,18.853 60.593,82.953 -11.361,26.394 -193.141,26.394 -204.502,0 C -87.103,18.853 -79.529,-7.541 0,0"
       style="fill:#e6e6e6;fill-opacity:1;fill-rule:nonzero;stroke:#1a1a1a;stroke-width:2.00000009;stroke-miterlimit:4;stroke-dasharray:none"
       id="path38" /></g><g
     id="g40"
     transform="matrix(1.3333333,0,0,-1.3333333,106.66666,176)"><path
       inkscape:connector-curvature="0"
       d="m 0,0 c 0,-13.255 -10.745,-24 -24,-24 -13.255,0 -24,10.745 -24,24 0,13.255 10.745,24 24,24 C -10.745,24 0,13.255 0,0"
       style="fill:#888888;fill-opacity:1;fill-rule:nonzero;stroke:none"
       id="path42" /></g><g
     id="g44"
     transform="matrix(1.3333333,0,0,-1.3333333,271.99999,160)"><path
       inkscape:connector-curvature="0"
       d="m 0,0 c 0,-4.418 -3.582,-8 -8,-8 -4.418,0 -8,3.582 -8,8 0,4.418 3.582,8 8,8 4.418,0 8,-3.582 8,-8"
       style="fill:#a0a0a0;fill-opacity:1;fill-rule:nonzero;stroke:none"
       id="path46" /></g><g
     id="g48"
     transform="matrix(1.3333333,0,0,-1.3333333,298.66666,149.33333)"><path
       inkscape:connector-curvature="0"
       d="m 0,0 c 0,-4.418 -3.582,-8 -8,-8 -4.418,0 -8,3.582 -8,8 0,4.418 3.582,8 8,8 4.418,0 8,-3.582 8,-8"
       style="fill:#a0a0a0;fill-opacity:1;fill-rule:nonzero;stroke:none"
       id="path50" /></g><g
     id="g52"
     transform="matrix(1.3333333,0,0,-1.3333333,245.33333,170.66667)"><path
       inkscape:connector-curvature="0"
       d="m 0,0 c 0,-4.418 -3.582,-8 -8,-8 -4.418,0 -8,3.582 -8,8 0,4.418 3.582,8 8,8 4.418,0 8,-3.582 8,-8"
       style="fill:#a0a0a0;fill-opacity:1;fill-rule:nonzero;stroke:none"
       id="path54" /></g><g
     id="g56"
     transform="matrix(1.3333333,0,0,-1.3333333,147.42853,202.66667)"><path
       inkscape:connector-curvature="0"
       d="m 0,0 h 6.857 c 1.42,0 2.572,-0.895 2.572,-2 0,-1.105 -1.152,-2 -2.572,-2 H 0 c -1.42,0 -2.571,0.895 -2.571,2 0,1.105 1.151,2 2.571,2"
       style="fill:#a0a0a0;fill-opacity:1;fill-rule:nonzero;stroke:none"
       id="path58" /></g><g
     id="g60"
     transform="matrix(1.3333333,0,0,-1.3333333,184.76186,202.66667)"><path
       inkscape:connector-curvature="0"
       d="m 0,0 h 6.857 c 1.42,0 2.572,-0.895 2.572,-2 0,-1.105 -1.152,-2 -2.572,-2 H 0 c -1.42,0 -2.571,0.895 -2.571,2 0,1.105 1.151,2 2.571,2"
       style="fill:#a0a0a0;fill-opacity:1;fill-rule:nonzero;stroke:none"
       id="path62" /></g><g
     id="g64"
     transform="matrix(1.3333333,0,0,-1.3333333,165.33333,160)"><path
       inkscape:connector-curvature="0"
       d="m 0,0 h 8 c 1.105,0 2,-0.895 2,-2 0,-1.105 -0.895,-2 -2,-2 H 0 c -1.105,0 -2,0.895 -2,2 0,1.105 0.895,2 2,2"
       style="fill:#888888;fill-opacity:1;fill-rule:nonzero;stroke:none"
       id="path66" /></g><g
     id="g68"
     transform="matrix(1.3333333,0,0,-1.3333333,170.80866,162.66667)"><path
       inkscape:connector-curvature="0"
       d="m 0,0 c 0,-1.105 -0.895,-2 -2,-2 -1.105,0 -2,0.895 -2,2 0,1.105 0.895,2 2,2 1.105,0 2,-0.895 2,-2"
       style="fill:#cccccc;fill-opacity:1;fill-rule:nonzero;stroke:none"
       id="path70" /></g><g
     id="g72"
     transform="matrix(1.3333333,0,0,-1.3333333,165.33333,176)"><path
       inkscape:connector-curvature="0"
       d="m 0,0 h 8 c 1.105,0 2,-0.895 2,-2 0,-1.105 -0.895,-2 -2,-2 H 0 c -1.105,0 -2,0.895 -2,2 0,1.105 0.895,2 2,2"
       style="fill:#888888;fill-opacity:1;fill-rule:nonzero;stroke:none"
       id="path74" /></g><g
     id="g76"
     transform="matrix(1.3333333,0,0,-1.3333333,170.80866,178.66667)"><path
       inkscape:connector-curvature="0"
       d="m 0,0 c 0,-1.105 -0.895,-2 -2,-2 -1.105,0 -2,0.895 -2,2 0,1.105 0.895,2 2,2 1.105,0 2,-0.895 2,-2"
       style="fill:#cccccc;fill-opacity:1;fill-rule:nonzero;stroke:none"
       id="path78" /></g><g
     id="g80"
     transform="matrix(1.3333333,0,0,-1.3333333,282.66666,186.66667)"><path
       inkscape:connector-curvature="0"
       d="m 0,0 c 0,-4.418 -3.582,-8 -8,-8 -4.418,0 -8,3.582 -8,8 0,4.418 3.582,8 8,8 4.418,0 8,-3.582 8,-8"
       style="fill:#a0a0a0;fill-opacity:1;fill-rule:nonzero;stroke:none"
       id="path82" /></g><g
     id="g84"
     transform="matrix(1.3333333,0,0,-1.3333333,309.33333,176)"><path
       inkscape:connector-curvature="0"
       d="m 0,0 c 0,-4.418 -3.582,-8 -8,-8 -4.418,0 -8,3.582 -8,8 0,4.418 3.582,8 8,8 4.418,0 8,-3.582 8,-8"
       style="fill:#a0a0a0;fill-opacity:1;fill-rule:nonzero;stroke:none"
       id="path86" /></g><g
     id="g88"
     transform="matrix(1.3333333,0,0,-1.3333333,255.99999,197.33333)"><path
       inkscape:connector-curvature="0"
       d="m 0,0 c 0,-4.418 -3.582,-8 -8,-8 -4.418,0 -8,3.582 -8,8 0,4.418 3.582,8 8,8 4.418,0 8,-3.582 8,-8"
       style="fill:#a0a0a0;fill-opacity:1;fill-rule:nonzero;stroke:none"
       id="path90" /></g><g
     id="g92"
     transform="matrix(1.3333333,0,0,-1.3333333,101.98453,164.33067)"><path
       inkscape:connector-curvature="0"
       d="m 0,0 c -0.401,1.236 -1.711,1.927 -2.978,1.568 -1.494,-0.437 -3.144,-1.221 -4.739,-1.98 -1.841,-0.877 -3.746,-1.784 -4.685,-1.957 -1.157,0 -1.628,0.47 -1.656,1.256 0.202,1.304 1.111,3.206 1.988,5.042 0.761,1.591 1.549,3.234 1.988,4.726 0.365,1.246 -0.323,2.555 -1.557,2.965 -6.535,2.171 -11.163,2.171 -17.698,0 -1.235,-0.41 -1.922,-1.719 -1.557,-2.965 0.438,-1.49 1.224,-3.135 1.985,-4.726 0.877,-1.836 1.786,-3.736 1.96,-4.675 0,-1.153 -0.471,-1.623 -1.254,-1.651 -1.31,0.201 -3.218,1.108 -5.059,1.985 -1.595,0.759 -3.245,1.543 -4.739,1.98 -1.252,0.367 -2.575,-0.332 -2.978,-1.568 -2.013,-6.176 -2.013,-11.447 0,-17.617 0.403,-1.241 1.728,-1.945 2.978,-1.568 1.491,0.437 3.137,1.216 4.724,1.975 1.849,0.874 3.758,1.784 4.703,1.955 1.154,0 1.625,-0.468 1.653,-1.252 -0.202,-1.306 -1.111,-3.205 -1.99,-5.045 -0.759,-1.592 -1.545,-3.236 -1.983,-4.723 -0.368,-1.251 0.33,-2.568 1.572,-2.97 3.096,-1.005 5.966,-1.507 8.833,-1.507 2.869,0 5.739,0.502 8.835,1.507 1.242,0.402 1.94,1.719 1.572,2.97 -0.439,1.487 -1.225,3.136 -1.985,4.723 -0.88,1.84 -1.789,3.739 -1.963,4.679 0,1.15 0.471,1.618 1.262,1.648 1.31,-0.201 3.22,-1.111 5.067,-1.985 1.587,-0.759 3.232,-1.538 4.723,-1.975 1.267,-0.362 2.577,0.322 2.978,1.568 2.015,6.17 2.015,11.441 0,17.617"
       style="fill:#a0a0a0;fill-opacity:1;fill-rule:nonzero;stroke:none"
       id="path94" /></g><g
     id="g96"
     transform="matrix(1.3333333,0,0,-1.3333333,89.885598,229.35173)"><path
       inkscape:connector-curvature="0"
       d="m 0,0 c -2.134,0.105 -14.031,0.749 -27.829,2.535 -15.492,2.001 -18.564,14.408 -19.576,27.515 -1.087,14.085 9.056,39.072 9.159,39.322 l 0.01,0.029 c 1.491,3.986 4.573,4.636 6.442,4.636 0.825,0 1.413,-0.127 1.525,-0.15 C 17.462,69.755 21.964,49.595 22.02,49.325 28.937,23.039 2.921,2.235 0,0 m 27.146,52.986 c -4.475,21.592 -54.981,22.646 -57.114,22.83 -2.516,0.591 -7.857,0.17 -10.064,-5.706 -0.501,-1.227 -10.414,-25.717 -9.294,-40.212 1.025,-13.265 4.351,-27.12 21.255,-29.305 15.246,-1.973 28.197,-2.56 28.327,-2.566 l 0.331,-0.013 0.269,0.195 c 0.13,0.094 5.637,4.165 11.371,11.008 15.384,16.243 18.728,25.386 14.919,43.769"
       style="fill:#cccccc;fill-opacity:1;fill-rule:nonzero;stroke:none"
       id="path98" /></g><g
     id="g100"
     transform="matrix(1.3333333,0,0,-1.3333333,222.08826,163.5848)"><path
       inkscape:connector-curvature="0"
       d="m 0,0 c 0.056,0.27 4.558,20.429 52.289,24.562 0.112,0.023 0.7,0.149 1.524,0.149 1.87,0 4.952,-0.65 6.442,-4.635 l 0.011,-0.029 C 60.368,19.797 70.512,-5.19 69.424,-19.275 68.413,-32.383 65.341,-44.789 49.848,-46.79 36.051,-48.576 24.154,-49.22 22.02,-49.325 19.099,-47.091 -6.917,-26.287 0,0 m 9.793,-40.108 c 5.734,-6.843 11.24,-10.914 11.37,-11.008 l 0.27,-0.195 0.331,0.013 c 0.13,0.006 13.081,0.593 28.327,2.565 16.904,2.185 20.23,16.041 21.255,29.305 1.119,14.496 -8.793,38.986 -9.294,40.213 -2.208,5.876 -7.548,6.297 -10.064,5.706 C 49.854,26.307 -0.651,25.253 -5.126,3.661 -8.936,-14.722 -5.592,-23.866 9.793,-40.108"
       style="fill:#cccccc;fill-opacity:1;fill-rule:nonzero;stroke:none"
       id="path102" /></g><g
     id="g104"
     transform="matrix(1.3333333,0,0,-1.3333333,75.999998,150.66667)"><path
       inkscape:connector-curvature="0"
       d="m 0,0 c 0,-0.552 -0.448,-1 -1,-1 -0.552,0 -1,0.448 -1,1 0,0.552 0.448,1 1,1 0.552,0 1,-0.448 1,-1"
       style="fill:#888888;fill-opacity:1;fill-rule:nonzero;stroke:none"
       id="path106" /></g><g
     id="g108"
     transform="matrix(1.3333333,0,0,-1.3333333,75.999998,201.33333)"><path
       inkscape:connector-curvature="0"
       d="m 0,0 c 0,-0.552 -0.448,-1 -1,-1 -0.552,0 -1,0.448 -1,1 0,0.552 0.448,1 1,1 0.552,0 1,-0.448 1,-1"
       style="fill:#888888;fill-opacity:1;fill-rule:nonzero;stroke:none"
       id="path110" /></g><g
     id="g112"
     transform="matrix(1.3333333,0,0,-1.3333333,99.999998,177.33333)"><path
       inkscape:connector-curvature="0"
       d="M 0,0 C -0.552,0 -1,0.448 -1,1 -1,1.552 -0.552,2 0,2 0.552,2 1,1.552 1,1 1,0.448 0.552,0 0,0"
       style="fill:#888888;fill-opacity:1;fill-rule:nonzero;stroke:none"
       id="path114" /></g><g
     id="g116"
     transform="matrix(1.3333333,0,0,-1.3333333,49.333332,177.33333)"><path
       inkscape:connector-curvature="0"
       d="M 0,0 C -0.552,0 -1,0.448 -1,1 -1,1.552 -0.552,2 0,2 0.552,2 1,1.552 1,1 1,0.448 0.552,0 0,0"
       style="fill:#888888;fill-opacity:1;fill-rule:nonzero;stroke:none"
       id="path118" /></g><g
     id="g120"
     transform="matrix(1.3333333,0,0,-1.3333333,162.94293,120)"><path
       inkscape:connector-curvature="0"
       d="M 0,0 V -4.55 C 0,-4.7 0.066,-4.825 0.2,-4.924 0.319,-5.01 0.445,-5.053 0.58,-5.053 H 3.946 V -5.94 L 1.471,-6 c -0.099,0 -0.671,0.02 -1.717,0.06 -1.308,0.052 -1.961,0.533 -1.961,1.442 V 0 Z"
       style="fill:#888888;fill-opacity:1;fill-rule:nonzero;stroke:none"
       id="path122" /></g><g
     id="g124"
     transform="matrix(1.3333333,0,0,-1.3333333,172.13813,127.91947)"><path
       inkscape:connector-curvature="0"
       d="M 0,0 H -0.246 C -0.429,0 -0.677,0.032 -0.989,0.095 -1.38,0.177 -1.667,0.306 -1.851,0.487 -2.088,0.701 -2.207,1.019 -2.207,1.442 V 5.94 H 0 Z"
       style="fill:#888888;fill-opacity:1;fill-rule:nonzero;stroke:none"
       id="path126" /></g><g
     id="g128"
     transform="matrix(1.3333333,0,0,-1.3333333,176.07173,126.6572)"><path
       inkscape:connector-curvature="0"
       d="m 0,0 h 1.609 c 0.402,0 0.678,0.023 0.827,0.069 0.318,0.098 0.477,0.316 0.477,0.652 v 0.356 c 0,0.347 -0.184,0.57 -0.552,0.669 C 2.217,1.78 1.914,1.798 1.452,1.798 H 0 Z M 2.913,3.387 C 2.913,3.752 2.732,3.977 2.37,4.064 2.252,4.093 1.947,4.108 1.456,4.108 H 0 V 2.631 h 1.612 c 0.416,0 0.697,0.023 0.84,0.07 0.308,0.104 0.461,0.333 0.461,0.686 M 3.225,2.353 C 3.497,2.145 3.67,1.992 3.745,1.893 3.879,1.713 3.946,1.473 3.946,1.172 V 0.555 C 3.946,0 3.723,-0.391 3.277,-0.617 3.019,-0.744 2.588,-0.834 1.984,-0.886 1.409,-0.932 0.921,-0.955 0.52,-0.955 c -0.847,0 -1.42,0.043 -1.717,0.13 -0.674,0.191 -1.01,0.631 -1.01,1.32 v 4.498 h 4.191 c 0.52,0 0.949,-0.089 1.285,-0.269 C 3.72,4.475 3.946,4.084 3.946,3.551 3.946,3.21 3.893,2.947 3.786,2.761 3.68,2.576 3.493,2.44 3.225,2.353"
       style="fill:#888888;fill-opacity:1;fill-rule:nonzero;stroke:none"
       id="path130" /></g></svg>
